X: 09018
T: CHRIS CAULDWELL'S CONTRA
C: Bob McQuillen 22 Sept 92
B: Bob's Note Book 9 #18
%R: reel
Z: 2019 John Chambers <jc:trillian.mit.edu>
M: C
L: 1/8
K: G
BA \
| G2DG BGED | GABG AGED | G2DG B2BA | GBdB AGED |
| G2DG BGED | GBdg edBd | g2ag e2ge | dBGA BA :|
|: Bd \
| B2A2 G2GE | DEGB AGED | B2A2 GABd | edBG AGED |
| G2GB d2Bd | edeg d2ge | d2ge d2BG | AGAB G2 :|
%%begintext align
%% Chris lives out in Seattle, where
%% she is immersed in two things - Pediatrics and Contra dancing. I
%% haven't had much to do with her pediatrics, but I have been involved
%% with her dancing when I'm out that way. She's got an awful nice
%% husband named Mike Richardson who calls and plays the fiddle,
%% so I bet she won't have a problem hearing what this sounds like.
%% I think it's kind of a funny little tune, but perhaps it will be fun
%% to dance to. I hope so, Chris, and I hope you like it!
%%endtext

%%sep 1 1 500

%%sep 1 1 500

